!!!COM: Palestrina, Giovanni Perluigi da
!!!OPR: Missa Ave Maria (1596)
!!!OMD: Credo
!!!OTL: Crucifixus
**kern	**kern	**kern	**kern
*Icalto	*Icalto	*Icant	*Icant
!Altus 2	!Altus 1	!Cantus 2	!Cantus 1
*clefG2	*clefG2	*clefG2	*clefG2
*k[b-]	*k[b-]	*k[b-]	*k[b-]
*F:ion	*F:ion	*F:ion	*F:ion
*M4/2	*M4/2	*M4/2	*M4/2
=88	=88	=88	=88
0r	0f	0r	0r
=89	=89	=89	=89
0r	1f	0r	0r
.	1b-	.	.
=90	=90	=90	=90
0r	2a	0cc	0r
.	1f	.	.
.	2e	.	.
=91	=91	=91	=91
0r	2f	1cc	0r
.	2c	.	.
.	1d	1ff	.
=92	=92	=92	=92
0r	2c	0ee	0cc
.	2.A	.	.
.	4B-	.	.
.	4c	.	.
.	4d	.	.
=93	=93	=93	=93
0r	2e	2r	1cc
.	2f	1cc	.
.	1d	.	1ff
.	.	2b	.
=94	=94	=94	=94
0r	1c	2cc	1ee
.	.	2g	.
.	2.f	1a	2r
.	.	.	[2cc
.	4e	.	.
=95	=95	=95	=95
2r	1d	1f	2cc]
1f	.	.	2b
.	1c	1g	2cc
2e	.	.	2g
=96	=96	=96	=96
2f	1r	1.cc	1.a
2c	.	.	.
1d	[1f	.	.
.	.	2b	4g
.	.	.	4f
=97	=97	=97	=97
[0c	2f]	2cc	1g
.	4e	2g	.
.	4d	.	.
.	2e	2.a	1cc
.	[2f	.	.
.	.	8g	.
.	.	8f	.
=98	=98	=98	=98
1c]	2f]	1g	2r
.	2e	.	2cc
2r	1f	1a	2cc
2f	.	.	2cc
=99	=99	=99	=99
2f	0r	2r	2a
2f	.	2ff	2a
4d	.	2ff	1dd
4e	.	.	.
4f	.	2ff	.
4g	.	.	.
=100	=100	=100	=100
4a	0r	2.ee	1cc
4b-	.	.	.
4cc	.	.	.
4a	.	4cc	.
2.b-	.	4dd	1r
.	.	4ee	.
.	.	2ff	.
4a	.	.	.
=101	=101	=101	=101
2g	0r	2ee	1r
2f	.	2.dd	.
2e	.	.	2r
.	.	4cc	.
4d	.	[2cc	2ff
4c	.	.	.
=102	=102	=102	=102
1d	2r	2cc]	2ff
.	2f	2b	2ff
1c	2g	1cc	2.ee
.	2a	.	.
.	.	.	4cc
=103	=103	=103	=103
0r	2.b-	2r	4dd
.	.	.	4ee
.	.	2b-	2ff
.	4a	.	.
.	2g	2b-	2ee
.	2f	2a	[2dd
=104	=104	=104	=104
1r	2e	2g	4dd]
.	.	.	4cc
.	4d	2a	1cc
.	4c	.	.
2r	1d	1f	.
[2f	.	.	2b
=105	=105	=105	=105
2f]	0c	0g	0cc
4e	.	.	.
4d	.	.	.
1e	.	.	.
=106	=106	=106	=106
1f	2r	0cc	1a
.	1f	.	.
[1c	.	.	[1g
.	4e	.	.
.	4d	.	.
=107	=107	=107	=107
1c]	1e	1cc	1g]
1d	2f	1a	1f
.	2d	.	.
=108	=108	=108	=108
1B-	2f	2dd	1b-
.	1g	1dd	.
1d	.	.	2a
.	[2f	2b-	4g
.	.	.	4f
=109	=109	=109	=109
0c	2f]	[0cc	1g
.	4e	.	.
.	4d	.	.
.	1e	.	1g
=110	=110	=110	=110
2r	0f	0cc]	1a
2f	.	.	.
2a	.	.	2r
2a	.	.	2cc
=111	=111	=111	=111
1b-	1r	0r	2dd
.	.	.	2dd
1a	2r	.	1ff
.	2f	.	.
=112	=112	=112	=112
1r	2a	2r	1ee
.	2a	2cc	.
2r	1b-	2dd	1r
2g	.	2dd	.
=113	=113	=113	=113
2f	0a	0ff	2r
2d	.	.	2dd
1f	.	.	2cc
.	.	.	2a
=114	=114	=114	=114
1c	2r	2.ee	1cc
.	2cc	.	.
.	.	8dd	.
.	.	8cc	.
1r	2b-	1dd	2g
.	2g	.	2gg
=115	=115	=115	=115
0r	1b-	2r	2ff
.	.	2dd	2dd
.	4a	2cc	1ff
.	4g	.	.
.	4f	2a	.
.	4g	.	.
=116	=116	=116	=116
1r	4a	1cc	2.ee
.	4b-	.	.
.	2.cc	.	.
.	.	.	8dd
.	.	.	8cc
2r	.	1g	[1dd
.	4b-	.	.
2g	4b-	.	.
.	8a	.	.
.	8g	.	.
=117	=117	=117	=117
2f	0a	2r	1dd]
2d	.	2dd	.
2.f	.	2cc	1r
.	.	2a	.
4g	.	.	.
=118	=118	=118	=118
2a	2r	2cc	1r
2b-	2g	2.dd	.
2.a	2f	.	2r
.	.	4cc	.
.	2d	[2ff	2dd
4g	.	.	.
=119	=119	=119	=119
4a	1f	2ff]	2cc
4b-	.	.	.
2.cc	.	4ee	2a
.	.	4dd	.
.	1c	1ee	2.cc
4b-	.	.	.
4a	.	.	.
4g	.	.	4b-
=120	=120	=120	=120
2f#	0d	[0dd	2a
1g	.	.	2g
.	.	.	1a
2f#	.	.	.
=121	=121	=121	=121
0g	0G	1dd]	2b-
.	.	.	2g
.	.	2r	2.b-
.	.	2g	.
.	.	.	4cc
=122	=122	=122	=122
0r	0r	2b-	2dd
.	.	2cc	2ee
.	.	2dd	2ff
.	.	2ee	2cc
=123	=123	=123	=123
0r	1r	2.ff	2.dd
.	.	4ee	4cc
.	2r	4dd	4b-
.	.	4cc	4a
.	2G	[2dd	[2b-
=124	=124	=124	=124
0r	2B-	2dd]	2b-]
.	2c	2cc	1a
.	2d	1b-	.
.	2e	.	2g
=125	=125	=125	=125
2r	1f	0a	1a
2d	.	.	.
2.f	1d	.	2r
.	.	.	2a
4g	.	.	.
=126	=126	=126	=126
2a	0r	0r	2cc
2b-	.	.	2dd
2cc	.	.	2ee
2a	.	.	2ff
=127	=127	=127	=127
1.b-	0r	2r	2.gg
.	.	2g	.
.	.	.	4ff
.	.	2b-	4dd
.	.	.	4ee
2a	.	2cc	[2ff
=128	=128	=128	=128
1g	1r	2dd	2ff]
.	.	2ee	2ee
1f	2r	[1ff	2.dd
.	2d	.	.
.	.	.	8cc
.	.	.	8b-
=129	=129	=129	=129
0r	2f	2ff]	2a
.	2g	4ee	2b-
.	.	4dd	.
.	2a	1ff	2cc
.	2b-	.	2dd
=130	=130	=130	=130
0r	2.cc	2.ee	2.a
.	4b-	4dd	4b-
.	2a	4ee	2cc
.	.	4ff	.
.	[2b-	[2gg	[2dd
=131	=131	=131	=131
1r	2b-]	4gg]	2dd]
.	.	4ff	.
.	2a	1ff	4cc
.	.	.	4b-
1c	1g	.	1cc
.	.	2ee	.
=132	=132	=132	=132
2.d	1f	1ff	2r
.	.	.	2f
4d	.	.	.
2e	1r	2r	2g
2f	.	2cc	2a
=133	=133	=133	=133
2B-	2r	2.dd	2b-
2d	2f	.	2a
.	.	4dd	.
1c	2.g	1ee	2.cc
.	4g	.	4b-
=134	=134	=134	=134
0r	2a	1.ff	2cc
.	2b-	.	2.dd
.	2f	.	.
.	.	.	4cc
.	2a	2cc	[2cc
=135	=135	=135	=135
2r	1g	1dd	4cc]
.	.	.	8b
.	.	.	8a
2g	.	.	2b
2g	1c	2ee	1cc
2a	.	2cc	.
=136	=136	=136	=136
2b-	0r	2dd	0r
2cc	.	2ee	.
2a	.	2.ff	.
[2b-	.	.	.
.	.	4ee	.
=137	=137	=137	=137
4b-]	0r	4dd	0r
4a	.	4cc	.
4g	.	2.dd	.
4f	.	.	.
2.g	.	.	.
.	.	4cc	.
.	.	4b-	.
4f	.	4a	.
=138	=138	=138	=138
2e	0r	2g	2r
2.f	.	2.a	2cc
.	.	.	2dd
4e	.	4b-	.
2c	.	[2cc	2ee
=139	=139	=139	=139
1d	2r	4cc]	2.ff
.	.	8b	.
.	.	8a	.
.	2f	2b	.
.	.	.	8ee
.	.	.	8dd
1c	2g	2cc	1ee
.	2a	2cc	.
=140	=140	=140	=140
0r	2b-	2dd	2r
.	2cc	2ee	2a
.	2a	2.ff	2cc
.	[2b-	.	2dd
.	.	4ee	.
=141	=141	=141	=141
0r	4b-]	4dd	2.g
.	4a	4cc	.
.	4g	2.dd	.
.	4f	.	4a
.	2.g	.	4b-
.	.	4cc	4cc
.	.	4b-	[2dd
.	4f	4a	.
=142	=142	=142	=142
1r	2e	2g	4dd]
.	.	.	4cc
.	2f	2a	1cc
2r	1d	1f	.
[2f	.	.	2b
=143	=143	=143	=143
2f]	1c	1g	2cc
2e	.	.	2cc
2d	1r	1f	2b-
[2f	.	.	2a
=144	=144	=144	=144
4f]	2r	0r	2cc
4e	.	.	.
1d	1f	.	4b-
.	.	.	4a
.	.	.	4b-
.	.	.	4a
2c	2e	.	[2a
=145	=145	=145	=145
2B-	1d	2r	2a]
2B-	.	1dd	2g
1A	2.e	.	1a
.	.	2cc	.
.	4f	.	.
=146	=146	=146	=146
0r	1g	2b-	2.dd
.	.	2.dd	.
.	.	.	4cc
.	1g	.	4b-
.	.	4cc	4a
.	.	[2b-	[2g
=147	=147	=147	=147
0r	1d	2b-]	2g]
.	.	2a	2f
.	1r	2g	2b-
.	.	2g	2b-
=148	=148	=148	=148
0d	1r	1f#	1a
.	1f#	1a	1dd
=149	=149	=149	=149
1g	2g	1b-	1dd
.	2.b-	.	.
1f	.	1cc	[1ff
.	8a	.	.
.	8g	.	.
.	2a	.	.
=150	=150	=150	=150
1B-	0b-	2dd	1ff]
.	.	1ff	.
2r	.	.	1dd
2b-	.	2dd	.
=151	=151	=151	=151
2g	0r	2ee	0r
2a	.	2.ff	.
2.b-	.	.	.
.	.	4ee	.
.	.	4dd	.
4a	.	4cc	.
=152	=152	=152	=152
2g	1r	2b-	0r
4f	.	2cc	.
4e	.	.	.
4d	2r	[1dd	.
4c	.	.	.
4d	2f	.	.
4e	.	.	.
=153	=153	=153	=153
4f	2d	2dd]	0r
4d	.	.	.
2.g	2e	4cc	.
.	.	4b-	.
.	1f	1a	.
4f	.	.	.
[2f	.	.	.
=154	=154	=154	=154
2f]	1c	1g	2r
2e	.	.	1cc
1f	2r	1a	.
.	2f	.	2a
=155	=155	=155	=155
0r	2d	0r	2b-
.	2e	.	2.cc
.	2.f	.	.
.	.	.	4b-
.	.	.	4a
.	4e	.	4g
=156	=156	=156	=156
1r	4d	1ff	2a
.	4c	.	.
.	1B-	.	1dd
2r	.	2dd	.
[2a	2A	2ee	[2cc
=157	=157	=157	=157
2a]	1d	1.ff	2cc]
2f	.	.	2b
2g	1c	.	1cc
[2a	.	2ee	.
=158	=158	=158	=158
4a]	2.d	0dd	2.f
4g	.	.	.
4f	.	.	.
4e	4e	.	4g
4d	2f	.	2a
4c	.	.	.
2B-	2g	.	2b-
=159	=159	=159	=159
0c	2e	0cc	2g
.	1f	.	2a
.	.	.	1g
.	2e	.	.
=160	=160	=160	=160
2r	1f	1cc	1a
1cc	.	.	.
.	2r	2.a	1f
2a	2f	.	.
.	.	4g	.
=161	=161	=161	=161
2b-	2d	2f	0r
2.cc	2e	2g	.
.	2.f	1a	.
4b-	.	.	.
4a	.	.	.
4g	4e	.	.
=162	=162	=162	=162
1f	4d	2a	1ff
.	4c	.	.
.	1B-	1dd	.
2.g	.	.	2dd
.	2c	[2cc	2ee
4a	.	.	.
=163	=163	=163	=163
0f	0d	2cc]	0ff
.	.	4b	.
.	.	4a	.
.	.	1b	.
=164	=164	=164	=164
0g	0c	0cc	0cc
*-	*-	*-	*-
!!!CDT: 1525/^1526/-1594/2/2
!!!OCY: Italia
!!!AGN: Mass (Tenor)
!!!AST: renaissance, vocal
!!!ASW: Motet 1563 (Palestrina)
!!!PWK: Masses, Book 6
!!!RNB: Cadence finals: C
!!!YOR: Le Opere Complete, v. 21, p. 142
!!!YOO: Rome, Italy: Fratelli Scalera
!!!END: 1992//
!!!EED: John Miller
!!!YEC: Copyright 2000, John Miller
!!!YEN: United States of America
!!!YEM: Rights to all derivative electronic formats reserved.
!!!YEM: Refer to licensing agreement for further details.
!!!YEM: This file must be accompanied by the licensing agreement.
!!!YEM: A copy of the licensing agreement may be found at http://www.music-cog.ohio-state.edu/HumdrumDatabases/Palestrina/license.txt
!!!EMD: converted to Humdrum by Bret Aarden
